!!!PDT:	1923
!!!LANG: Non-Tone
!!!LING_GROUP: Siouan
!!!REG: Dakotas
!!!COM: Anon.
!!!OTL: This is Her Village
!!!ODT: <1918//
!!!MPN: Behtake [Otter Woman, Mrs. Little Crow]
!!!MLC: Fort Berthold Reservation, North Dakota, United States of America
!! Song was recorded during either the summer of 1912, 1915, or 1918.
!!!AGN: monody
!!!SOCIAL_FUNCTION: Mandan Garden Songs
!!!AMT: irregular
!!!RWG: Transcribed pitches, durations, and meters are only approximate.
!! Drum not recorded.
**kern
*ICvox
*Ifemale
*clefG2
*k[b-e-a-d-g-]
*M2/4
*MM96
8dd-
=1
4.dd-
8a-
*M3/4
=2
4dd-
4.dd-
8a-
*M2/4
=3
8b-
8a-
4a-
=4
[2a-
=5
4a-]
4a-
*M3/4
=6
4dd-
4.a-
8g-
*M2/4
=7
4g-~
4g-~
=8
16a-
8.g-
8g-
8f
=9
[2d-
=10
4.d-]
8A-
=11
[2d-
=12
4.d-]
8A-
*M3/4
=13
16e-
8.d-
16d-
8.A-
4A-
*M2/4
=14
16B-
8.A-
16B-
16A-
16B-
16A-
=15
2A-
=16
8A-
8A-
4A-
=17
2A-
=18
4r
4a-
=19
4.dd-
8a-
*M3/4
=20
8dd-
8dd-
(8dd-
8a-)
(8b-
8a-)
=21
2.a-
=22
4dd-
4dd-
(8dd-
8a-)
*M2/4
=23
4dd-
(8dd-
8a-)
=24
16g-
8.g-
16g-
8.f
=25
8d-
8d-
8d-
8d-
*M3/4
=26
4d-
4.d-
8B-
=27
8d-
8d-
8d-
8B-
4A-
*M2/4
=28
16B-
8.A-
(20B-
20A-
20B-
20A-
20A-)
=29
2A-
=30
8A-
8A-
4A-
=31
2A-
==
*-
!!!CNT: Mandan
!!!TXO: Mandan
!!!OCY: United States
!!!OCL: Frances Densmore
!!!YOR: Frances Densmore, "Mandan and Hidatsa Music",
!!!YOR: Bulletin 80, page 58, No. 16
!!!PPR: Smithsonian Institution, Bureau of American Ethnology
!!!PPR: Government Printing Office
!!!PDT: 1923
!!!PPP: Washington, DC, United States of America
!!!YEC: Electronic Copyright 2000 David Huron
!!!YER: August 2000
!!!YEN: United States of America
!!!ENC: David Huron
!!!RDT: August 16, 2000
!!!EEV: Release 1.0
!!!AIN: tom, vox
